src/images/x.svg

<svg xmlns="http://www.w3.org/2000/svg" width="20" height="20" fill="none" viewBox="0 0 20 20"><path fill="#FB4F0D" fill-rule="evenodd" d="M10.0642 7.8196L4.24459 2L2 4.24459L7.8196 10.0642L2.12837 15.7554L4.37296 18L10.0642 12.3088L15.4675 17.7121L17.7121 15.4675L12.3088 10.0642L17.8405 4.53248L15.5959 2.28789L10.0642 7.8196Z" clip-rule="evenodd"/></svg>

<svg fill="none" viewBox="0 0 20 20"><path fill="#FB4F0D" fill-rule="evenodd" d="M10.064 7.82L4.244 2 2 4.245l5.82 5.82-5.692 5.69L4.373 18l5.691-5.691 5.403 5.403 2.245-2.245-5.403-5.403 5.531-5.532-2.244-2.244-5.532 5.532z" clip-rule="evenodd"/></svg>
